dist/images/logo.svg

<svg width="197" height="31" viewBox="0 0 197 31" fill="none" xmlns="http://www.w3.org/2000/svg">
<path d="M9.593 24.33C7.635 24.33 5.952 24.033 4.544 23.439C3.136 22.845 2.069 22.064 1.343 21.096C0.617 20.128 0.232 19.083 0.188 17.961C0.188 17.763 0.254 17.598 0.386 17.466C0.518 17.334 0.683 17.268 0.881 17.268H3.818C4.082 17.268 4.28 17.323 4.412 17.433C4.566 17.521 4.709 17.675 4.841 17.895C5.061 18.643 5.567 19.27 6.359 19.776C7.151 20.282 8.229 20.535 9.593 20.535C11.155 20.535 12.332 20.282 13.124 19.776C13.916 19.248 14.312 18.522 14.312 17.598C14.312 16.982 14.103 16.476 13.685 16.08C13.289 15.684 12.684 15.343 11.87 15.057C11.078 14.771 9.89 14.419 8.306 14.001C5.71 13.385 3.807 12.571 2.597 11.559C1.409 10.525 0.815 9.062 0.815 7.17C0.815 5.894 1.156 4.761 1.838 3.771C2.542 2.781 3.543 2 4.841 1.428C6.161 0.855999 7.69 0.569999 9.428 0.569999C11.232 0.569999 12.794 0.888999 14.114 1.527C15.434 2.165 16.435 2.968 17.117 3.936C17.821 4.882 18.195 5.828 18.239 6.774C18.239 6.972 18.173 7.137 18.041 7.269C17.909 7.401 17.744 7.467 17.546 7.467H14.477C14.015 7.467 13.696 7.258 13.52 6.84C13.388 6.136 12.948 5.553 12.2 5.091C11.452 4.607 10.528 4.365 9.428 4.365C8.196 4.365 7.228 4.596 6.524 5.058C5.82 5.52 5.468 6.191 5.468 7.071C5.468 7.687 5.644 8.193 5.996 8.589C6.348 8.985 6.898 9.337 7.646 9.645C8.416 9.953 9.516 10.294 10.946 10.668C12.882 11.108 14.422 11.603 15.566 12.153C16.732 12.703 17.59 13.396 18.14 14.232C18.69 15.068 18.965 16.135 18.965 17.433C18.965 18.841 18.569 20.073 17.777 21.129C17.007 22.163 15.907 22.955 14.477 23.505C13.069 24.055 11.441 24.33 9.593 24.33ZM24.4299 4.002C24.2099 4.002 24.0229 3.925 23.8689 3.771C23.7149 3.617 23.6379 3.43 23.6379 3.21V0.833999C23.6379 0.613999 23.7149 0.426999 23.8689 0.272999C24.0229 0.118999 24.2099 0.0419996 24.4299 0.0419996H27.4329C27.6529 0.0419996 27.8399 0.118999 27.9939 0.272999C28.1699 0.426999 28.2579 0.613999 28.2579 0.833999V3.21C28.2579 3.43 28.1809 3.617 28.0269 3.771C27.8729 3.925 27.6749 4.002 27.4329 4.002H24.4299ZM24.5619 24C24.3419 24 24.1549 23.923 24.0009 23.769C23.8469 23.615 23.7699 23.428 23.7699 23.208V7.632C23.7699 7.412 23.8469 7.225 24.0009 7.071C24.1549 6.917 24.3419 6.84 24.5619 6.84H27.3009C27.5429 6.84 27.7299 6.917 27.8619 7.071C28.0159 7.203 28.0929 7.39 28.0929 7.632V23.208C28.0929 23.428 28.0159 23.615 27.8619 23.769C27.7299 23.923 27.5429 24 27.3009 24H24.5619ZM34.682 24C34.462 24 34.275 23.923 34.121 23.769C33.967 23.615 33.89 23.428 33.89 23.208V7.632C33.89 7.412 33.967 7.225 34.121 7.071C34.275 6.917 34.462 6.84 34.682 6.84H37.256C37.476 6.84 37.663 6.917 37.817 7.071C37.971 7.225 38.048 7.412 38.048 7.632V8.754C39.192 7.258 40.787 6.51 42.833 6.51C45.275 6.51 46.98 7.489 47.948 9.447C48.476 8.567 49.224 7.863 50.192 7.335C51.16 6.785 52.205 6.51 53.327 6.51C55.131 6.51 56.605 7.126 57.749 8.358C58.893 9.59 59.465 11.383 59.465 13.737V23.208C59.465 23.428 59.388 23.615 59.234 23.769C59.102 23.923 58.915 24 58.673 24H55.967C55.747 24 55.56 23.923 55.406 23.769C55.252 23.615 55.175 23.428 55.175 23.208V14.001C55.175 12.615 54.878 11.614 54.284 10.998C53.712 10.36 52.942 10.041 51.974 10.041C51.116 10.041 50.379 10.36 49.763 10.998C49.169 11.636 48.872 12.637 48.872 14.001V23.208C48.872 23.428 48.795 23.615 48.641 23.769C48.487 23.923 48.3 24 48.08 24H45.374C45.154 24 44.967 23.923 44.813 23.769C44.659 23.615 44.582 23.428 44.582 23.208V14.001C44.582 12.615 44.274 11.614 43.658 10.998C43.064 10.36 42.305 10.041 41.381 10.041C40.501 10.041 39.753 10.36 39.137 10.998C38.543 11.636 38.246 12.637 38.246 14.001V23.208C38.246 23.428 38.169 23.615 38.015 23.769C37.861 23.923 37.674 24 37.454 24H34.682ZM65.9114 30.27C65.6914 30.27 65.5044 30.193 65.3504 30.039C65.1964 29.907 65.1194 29.72 65.1194 29.478V7.632C65.1194 7.39 65.1964 7.203 65.3504 7.071C65.5044 6.917 65.6914 6.84 65.9114 6.84H68.5184C68.7604 6.84 68.9474 6.917 69.0794 7.071C69.2334 7.203 69.3104 7.39 69.3104 7.632V8.952C70.5424 7.324 72.3024 6.51 74.5904 6.51C76.8124 6.51 78.5174 7.214 79.7054 8.622C80.8934 10.008 81.5314 11.889 81.6194 14.265C81.6414 14.529 81.6524 14.914 81.6524 15.42C81.6524 15.948 81.6414 16.344 81.6194 16.608C81.5314 18.918 80.8934 20.788 79.7054 22.218C78.5174 23.626 76.8124 24.33 74.5904 24.33C72.3684 24.33 70.6744 23.549 69.5084 21.987V29.478C69.5084 29.72 69.4314 29.907 69.2774 30.039C69.1454 30.193 68.9584 30.27 68.7164 30.27H65.9114ZM73.3694 20.799C75.7454 20.799 77.0104 19.336 77.1644 16.41C77.1864 16.19 77.1974 15.86 77.1974 15.42C77.1974 14.98 77.1864 14.65 77.1644 14.43C77.0104 11.504 75.7454 10.041 73.3694 10.041C72.0934 10.041 71.1474 10.448 70.5314 11.262C69.9154 12.076 69.5744 13.077 69.5084 14.265L69.4754 15.519L69.5084 16.806C69.5524 17.906 69.8934 18.852 70.5314 19.644C71.1914 20.414 72.1374 20.799 73.3694 20.799ZM87.6009 24C87.3809 24 87.1939 23.923 87.0399 23.769C86.8859 23.615 86.8089 23.428 86.8089 23.208V1.362C86.8089 1.12 86.8859 0.932999 87.0399 0.801C87.1939 0.646999 87.3809 0.569999 87.6009 0.569999H90.3399C90.5819 0.569999 90.7689 0.646999 90.9009 0.801C91.0549 0.932999 91.1319 1.12 91.1319 1.362V23.208C91.1319 23.428 91.0549 23.615 90.9009 23.769C90.7689 23.923 90.5819 24 90.3399 24H87.6009ZM104.32 24.33C101.878 24.33 99.9313 23.626 98.4793 22.218C97.0493 20.788 96.2903 18.786 96.2023 16.212L96.1693 15.387L96.2023 14.562C96.3123 12.054 97.0823 10.085 98.5123 8.655C99.9643 7.225 101.9 6.51 104.32 6.51C106.916 6.51 108.918 7.302 110.326 8.886C111.756 10.47 112.471 12.582 112.471 15.222V15.915C112.471 16.135 112.394 16.322 112.24 16.476C112.086 16.63 111.888 16.707 111.646 16.707H100.69V16.971C100.734 18.181 101.064 19.204 101.68 20.04C102.318 20.854 103.187 21.261 104.287 21.261C105.585 21.261 106.63 20.755 107.422 19.743C107.62 19.501 107.774 19.347 107.884 19.281C108.016 19.215 108.203 19.182 108.445 19.182H111.283C111.481 19.182 111.646 19.248 111.778 19.38C111.932 19.49 112.009 19.633 112.009 19.809C112.009 20.337 111.69 20.964 111.052 21.69C110.436 22.394 109.545 23.01 108.379 23.538C107.213 24.066 105.86 24.33 104.32 24.33ZM107.983 13.935V13.836C107.983 12.538 107.653 11.493 106.993 10.701C106.355 9.909 105.464 9.513 104.32 9.513C103.176 9.513 102.285 9.909 101.647 10.701C101.009 11.493 100.69 12.538 100.69 13.836V13.935H107.983Z" fill="#FF6838"/>
<path d="M118.581 24C118.361 24 118.174 23.923 118.02 23.769C117.866 23.615 117.789 23.428 117.789 23.208V1.725C117.789 1.483 117.855 1.285 117.987 1.131C118.141 0.976999 118.339 0.899998 118.581 0.899998H132.903C133.145 0.899998 133.343 0.976999 133.497 1.131C133.651 1.285 133.728 1.483 133.728 1.725V4.035C133.728 4.277 133.651 4.475 133.497 4.629C133.343 4.761 133.145 4.827 132.903 4.827H122.31V11.097H132.243C132.485 11.097 132.683 11.174 132.837 11.328C132.991 11.482 133.068 11.68 133.068 11.922V14.232C133.068 14.474 132.991 14.672 132.837 14.826C132.683 14.958 132.485 15.024 132.243 15.024H122.31V23.208C122.31 23.45 122.233 23.648 122.079 23.802C121.925 23.934 121.727 24 121.485 24H118.581ZM145.899 24.33C143.325 24.33 141.334 23.67 139.926 22.35C138.518 21.008 137.759 19.182 137.649 16.872L137.616 15.42L137.649 13.968C137.759 11.68 138.529 9.865 139.959 8.523C141.389 7.181 143.369 6.51 145.899 6.51C148.429 6.51 150.409 7.181 151.839 8.523C153.269 9.865 154.039 11.68 154.149 13.968C154.171 14.232 154.182 14.716 154.182 15.42C154.182 16.124 154.171 16.608 154.149 16.872C154.039 19.182 153.28 21.008 151.872 22.35C150.464 23.67 148.473 24.33 145.899 24.33ZM145.899 21.063C147.065 21.063 147.967 20.7 148.605 19.974C149.243 19.226 149.595 18.137 149.661 16.707C149.683 16.487 149.694 16.058 149.694 15.42C149.694 14.782 149.683 14.353 149.661 14.133C149.595 12.703 149.243 11.625 148.605 10.899C147.967 10.151 147.065 9.777 145.899 9.777C144.733 9.777 143.831 10.151 143.193 10.899C142.555 11.625 142.203 12.703 142.137 14.133L142.104 15.42L142.137 16.707C142.203 18.137 142.555 19.226 143.193 19.974C143.831 20.7 144.733 21.063 145.899 21.063ZM166.848 24.33C164.274 24.33 162.283 23.67 160.875 22.35C159.467 21.008 158.708 19.182 158.598 16.872L158.565 15.42L158.598 13.968C158.708 11.68 159.478 9.865 160.908 8.523C162.338 7.181 164.318 6.51 166.848 6.51C169.378 6.51 171.358 7.181 172.788 8.523C174.218 9.865 174.988 11.68 175.098 13.968C175.12 14.232 175.131 14.716 175.131 15.42C175.131 16.124 175.12 16.608 175.098 16.872C174.988 19.182 174.229 21.008 172.821 22.35C171.413 23.67 169.422 24.33 166.848 24.33ZM166.848 21.063C168.014 21.063 168.916 20.7 169.554 19.974C170.192 19.226 170.544 18.137 170.61 16.707C170.632 16.487 170.643 16.058 170.643 15.42C170.643 14.782 170.632 14.353 170.61 14.133C170.544 12.703 170.192 11.625 169.554 10.899C168.916 10.151 168.014 9.777 166.848 9.777C165.682 9.777 164.78 10.151 164.142 10.899C163.504 11.625 163.152 12.703 163.086 14.133L163.053 15.42L163.086 16.707C163.152 18.137 163.504 19.226 164.142 19.974C164.78 20.7 165.682 21.063 166.848 21.063ZM186.575 24.33C184.353 24.33 182.648 23.615 181.46 22.185C180.272 20.755 179.634 18.852 179.546 16.476L179.513 15.387L179.546 14.331C179.612 12.021 180.239 10.14 181.427 8.688C182.637 7.236 184.353 6.51 186.575 6.51C188.709 6.51 190.403 7.236 191.657 8.688V1.362C191.657 1.12 191.734 0.932999 191.888 0.801C192.042 0.646999 192.229 0.569999 192.449 0.569999H195.254C195.496 0.569999 195.683 0.646999 195.815 0.801C195.969 0.932999 196.046 1.12 196.046 1.362V23.208C196.046 23.428 195.969 23.615 195.815 23.769C195.683 23.923 195.496 24 195.254 24H192.647C192.427 24 192.24 23.923 192.086 23.769C191.932 23.615 191.855 23.428 191.855 23.208V21.987C190.601 23.549 188.841 24.33 186.575 24.33ZM187.796 20.799C189.072 20.799 190.018 20.392 190.634 19.578C191.25 18.764 191.591 17.763 191.657 16.575C191.679 16.311 191.69 15.882 191.69 15.288C191.69 14.716 191.679 14.298 191.657 14.034C191.613 12.934 191.261 11.999 190.601 11.229C189.963 10.437 189.028 10.041 187.796 10.041C185.42 10.041 184.155 11.504 184.001 14.43L183.968 15.42L184.001 16.41C184.155 19.336 185.42 20.799 187.796 20.799Z" fill="#363853"/>
</svg>

<svg width="197" height="31" fill="none" xmlns="http://www.w3.org/2000/svg"><path d="M9.593 24.33c-1.958 0-3.641-.297-5.049-.891-1.408-.594-2.475-1.375-3.201-2.343S.232 19.083.188 17.961c0-.198.066-.363.198-.495a.672.672 0 01.495-.198h2.937c.264 0 .462.055.594.165.154.088.297.242.429.462.22.748.726 1.375 1.518 1.881s1.87.759 3.234.759c1.562 0 2.739-.253 3.531-.759.792-.528 1.188-1.254 1.188-2.178 0-.616-.209-1.122-.627-1.518-.396-.396-1.001-.737-1.815-1.023-.792-.286-1.98-.638-3.564-1.056-2.596-.616-4.499-1.43-5.709-2.442C1.409 10.525.815 9.062.815 7.17c0-1.276.341-2.409 1.023-3.399.704-.99 1.705-1.771 3.003-2.343C6.161.856 7.69.57 9.428.57c1.804 0 3.366.319 4.686.957 1.32.638 2.321 1.441 3.003 2.409.704.946 1.078 1.892 1.122 2.838a.672.672 0 01-.198.495.672.672 0 01-.495.198h-3.069c-.462 0-.781-.209-.957-.627-.132-.704-.572-1.287-1.32-1.749-.748-.484-1.672-.726-2.772-.726-1.232 0-2.2.231-2.904.693-.704.462-1.056 1.133-1.056 2.013 0 .616.176 1.122.528 1.518.352.396.902.748 1.65 1.056.77.308 1.87.649 3.3 1.023 1.936.44 3.476.935 4.62 1.485 1.166.55 2.024 1.243 2.574 2.079.55.836.825 1.903.825 3.201 0 1.408-.396 2.64-1.188 3.696-.77 1.034-1.87 1.826-3.3 2.376-1.408.55-3.036.825-4.884.825zM24.43 4.002a.764.764 0 01-.561-.231.764.764 0 01-.231-.561V.834c0-.22.077-.407.23-.561a.764.764 0 01.562-.231h3.003a.76.76 0 01.56.231.719.719 0 01.265.561V3.21c0 .22-.077.407-.231.561a.804.804 0 01-.594.231H24.43zM24.562 24a.764.764 0 01-.561-.231.764.764 0 01-.231-.561V7.632c0-.22.077-.407.23-.561a.764.764 0 01.562-.231H27.3c.242 0 .429.077.56.231.155.132.232.319.232.561v15.576c0 .22-.077.407-.231.561-.132.154-.32.231-.561.231h-2.74zm10.12 0a.764.764 0 01-.561-.231.764.764 0 01-.231-.561V7.632c0-.22.077-.407.231-.561a.764.764 0 01.561-.231h2.574c.22 0 .407.077.561.231a.764.764 0 01.231.561v1.122c1.144-1.496 2.739-2.244 4.785-2.244 2.442 0 4.147.979 5.115 2.937.528-.88 1.276-1.584 2.244-2.112a6.24 6.24 0 013.135-.825c1.804 0 3.278.616 4.422 1.848 1.144 1.232 1.716 3.025 1.716 5.379v9.471c0 .22-.077.407-.231.561-.132.154-.319.231-.561.231h-2.706a.764.764 0 01-.561-.231.764.764 0 01-.231-.561v-9.207c0-1.386-.297-2.387-.891-3.003-.572-.638-1.342-.957-2.31-.957-.858 0-1.595.319-2.211.957-.594.638-.891 1.639-.891 3.003v9.207c0 .22-.077.407-.231.561a.764.764 0 01-.561.231h-2.706a.764.764 0 01-.561-.231.764.764 0 01-.231-.561v-9.207c0-1.386-.308-2.387-.924-3.003-.594-.638-1.353-.957-2.277-.957-.88 0-1.628.319-2.244.957-.594.638-.891 1.639-.891 3.003v9.207c0 .22-.077.407-.231.561a.764.764 0 01-.561.231h-2.772zm31.23 6.27a.764.764 0 01-.562-.231c-.154-.132-.23-.319-.23-.561V7.632c0-.242.076-.429.23-.561a.764.764 0 01.561-.231h2.607c.242 0 .43.077.561.231.154.132.231.319.231.561v1.32c1.232-1.628 2.992-2.442 5.28-2.442 2.222 0 3.927.704 5.115 2.112 1.188 1.386 1.826 3.267 1.914 5.643.022.264.033.649.033 1.155 0 .528-.01.924-.033 1.188-.088 2.31-.726 4.18-1.914 5.61-1.188 1.408-2.893 2.112-5.115 2.112-2.222 0-3.916-.781-5.082-2.343v7.491c0 .242-.077.429-.23.561-.133.154-.32.231-.562.231h-2.805zm7.457-9.471c2.376 0 3.641-1.463 3.795-4.389.022-.22.033-.55.033-.99 0-.44-.01-.77-.033-.99-.154-2.926-1.419-4.389-3.795-4.389-1.276 0-2.222.407-2.838 1.221-.616.814-.957 1.815-1.023 3.003l-.033 1.254.033 1.287c.044 1.1.385 2.046 1.023 2.838.66.77 1.606 1.155 2.838 1.155zM87.601 24a.764.764 0 01-.561-.231.764.764 0 01-.231-.561V1.362c0-.242.077-.429.23-.561a.764.764 0 01.562-.231h2.739c.242 0 .429.077.56.231.155.132.232.319.232.561v21.846c0 .22-.077.407-.231.561-.132.154-.32.231-.561.231H87.6zm16.719.33c-2.442 0-4.389-.704-5.84-2.112-1.43-1.43-2.19-3.432-2.278-6.006l-.033-.825.033-.825c.11-2.508.88-4.477 2.31-5.907 1.452-1.43 3.388-2.145 5.808-2.145 2.596 0 4.598.792 6.006 2.376 1.43 1.584 2.145 3.696 2.145 6.336v.693c0 .22-.077.407-.231.561a.804.804 0 01-.594.231H100.69v.264c.044 1.21.374 2.233.99 3.069.638.814 1.507 1.221 2.607 1.221 1.298 0 2.343-.506 3.135-1.518.198-.242.352-.396.462-.462.132-.066.319-.099.561-.099h2.838c.198 0 .363.066.495.198.154.11.231.253.231.429 0 .528-.319 1.155-.957 1.881-.616.704-1.507 1.32-2.673 1.848-1.166.528-2.519.792-4.059.792zm3.663-10.395v-.099c0-1.298-.33-2.343-.99-3.135-.638-.792-1.529-1.188-2.673-1.188-1.144 0-2.035.396-2.673 1.188-.638.792-.957 1.837-.957 3.135v.099h7.293z" fill="#FF6838"/><path d="M118.581 24a.764.764 0 01-.561-.231.764.764 0 01-.231-.561V1.725a.88.88 0 01.198-.594.804.804 0 01.594-.231h14.322c.242 0 .44.077.594.231a.804.804 0 01.231.594v2.31c0 .242-.077.44-.231.594a.88.88 0 01-.594.198H122.31v6.27h9.933c.242 0 .44.077.594.231a.804.804 0 01.231.594v2.31c0 .242-.077.44-.231.594a.88.88 0 01-.594.198h-9.933v8.184c0 .242-.077.44-.231.594a.88.88 0 01-.594.198h-2.904zm27.318.33c-2.574 0-4.565-.66-5.973-1.98-1.408-1.342-2.167-3.168-2.277-5.478l-.033-1.452.033-1.452c.11-2.288.88-4.103 2.31-5.445 1.43-1.342 3.41-2.013 5.94-2.013 2.53 0 4.51.671 5.94 2.013 1.43 1.342 2.2 3.157 2.31 5.445.022.264.033.748.033 1.452s-.011 1.188-.033 1.452c-.11 2.31-.869 4.136-2.277 5.478-1.408 1.32-3.399 1.98-5.973 1.98zm0-3.267c1.166 0 2.068-.363 2.706-1.089.638-.748.99-1.837 1.056-3.267.022-.22.033-.649.033-1.287 0-.638-.011-1.067-.033-1.287-.066-1.43-.418-2.508-1.056-3.234-.638-.748-1.54-1.122-2.706-1.122s-2.068.374-2.706 1.122c-.638.726-.99 1.804-1.056 3.234l-.033 1.287.033 1.287c.066 1.43.418 2.519 1.056 3.267.638.726 1.54 1.089 2.706 1.089zm20.949 3.267c-2.574 0-4.565-.66-5.973-1.98-1.408-1.342-2.167-3.168-2.277-5.478l-.033-1.452.033-1.452c.11-2.288.88-4.103 2.31-5.445 1.43-1.342 3.41-2.013 5.94-2.013 2.53 0 4.51.671 5.94 2.013 1.43 1.342 2.2 3.157 2.31 5.445.022.264.033.748.033 1.452s-.011 1.188-.033 1.452c-.11 2.31-.869 4.136-2.277 5.478-1.408 1.32-3.399 1.98-5.973 1.98zm0-3.267c1.166 0 2.068-.363 2.706-1.089.638-.748.99-1.837 1.056-3.267.022-.22.033-.649.033-1.287 0-.638-.011-1.067-.033-1.287-.066-1.43-.418-2.508-1.056-3.234-.638-.748-1.54-1.122-2.706-1.122s-2.068.374-2.706 1.122c-.638.726-.99 1.804-1.056 3.234l-.033 1.287.033 1.287c.066 1.43.418 2.519 1.056 3.267.638.726 1.54 1.089 2.706 1.089zm19.727 3.267c-2.222 0-3.927-.715-5.115-2.145-1.188-1.43-1.826-3.333-1.914-5.709l-.033-1.089.033-1.056c.066-2.31.693-4.191 1.881-5.643 1.21-1.452 2.926-2.178 5.148-2.178 2.134 0 3.828.726 5.082 2.178V1.362c0-.242.077-.429.231-.561a.764.764 0 01.561-.231h2.805c.242 0 .429.077.561.231.154.132.231.319.231.561v21.846c0 .22-.077.407-.231.561-.132.154-.319.231-.561.231h-2.607a.764.764 0 01-.561-.231.764.764 0 01-.231-.561v-1.221c-1.254 1.562-3.014 2.343-5.28 2.343zm1.221-3.531c1.276 0 2.222-.407 2.838-1.221.616-.814.957-1.815 1.023-3.003.022-.264.033-.693.033-1.287 0-.572-.011-.99-.033-1.254-.044-1.1-.396-2.035-1.056-2.805-.638-.792-1.573-1.188-2.805-1.188-2.376 0-3.641 1.463-3.795 4.389l-.033.99.033.99c.154 2.926 1.419 4.389 3.795 4.389z" fill="#363853"/></svg>
